!!!COM: Scarlatti, Domenico
!!!CDT: 1685///-1757///
!!!OTL: Sonata in C Major, K.269, L.307
!!!SCT: K. 269
!!!SCT: L. 307
**kern	**kern	**dynam
*staff2	*staff1	*staff1/2
*Icemba	*Icemba	*Icemba
*>[A,A,B,B]	*>[A,A,B,B]	*>[A,A,B,B]
*>norep[A,B]	*>norep[A,B]	*>norep[A,B]
*>A	*>A	*>A
*clefF4	*clefG2	*clefG2
*k[f#c#g#]	*k[f#c#g#]	*k[f#c#g#]
*A:	*A:	*A:
*M6/8	*M6/8	*M6/8
*MM156	*MM156	*MM156
=1-	=1-	=1-
.	(ddq/	.
(8A\L	4.cc#\)	p
8B\	.	.
8c#\J	.	.
.	(cc#q/	.
8d\L	[4.b\)	.
8e\	.	.
8f#\J)	.	.
=2	=2	=2
4.G#\	8b\L]	.
.	(8ff#\	.
.	8ee\J	<
4.E\	8dd\L	.
.	8cc#\	.
.	8b\J	.
=3	=3	=3
4.A\	8cc#\L	mf
.	8aa\	.
.	[8ee\J	.
4.C#/	8ee\L]	.
.	8dd\	.
.	8cc#\J	.
=4	=4	=4
4.D\	8dd\L	.
.	8ff#\	.
.	[8dd\J)	.
4.E\	8dd\L]	.
.	8a\ (8cc#\	.
.	8g#\ 8b\J	.
=5	=5	=5
4.AA/	8a\ 8cc#\L)	.
.	(8aa\	p
.	[8ee\J	.
4.C#/	8ee\L]	.
.	8dd\	.
.	8cc#\J	.
=6	=6	=6
4.D\	8b\L	.
.	8ff#\	.
.	8dd\J)	.
4.E\	8dd\L	.
.	8a\ (8cc#\	.
.	8g#\ 8b\J)	.
=7	=7	=7
.	(bq/	.
4.AA/	4.a\)	.
.	(cc#q/LL	.
.	ddq/JJ	.
8A\L	([4.ee\)	mf
8c#\	.	.
8e\J	.	.
=8	=8	=8
4.EE/	8ee\L]	.
.	8dd\	.
.	8b\J	.
(8A\L	8a/L	.
8c#\	8g#/	.
8e\J)	8a/J)	.
=9	=9	=9
.	(aq/	.
4.EE/	4.b\)	.
.	cc#q/LL	.
.	ddq/JJ	.
(8A\L	[4.ee\	p
8c#\	.	.
8e\J)	.	.
=10	=10	=10
4.EE/	8ee\L]	.
.	8bb\	.
.	8dd\J	.
(8A\L	8cc#\L	.
8c#\	8b\	.
8e\J)	8a\J	.
=11	=11	=11
.	(aq/	.
4.EE/	4.b\)	.
8E'\L	([4.gg#\	f
8e\	.	.
8g#\J	.	.
=12	=12	=12
8D#'\L	8gg#\L]	.
8d#\	8ff#\	.
8f#\J	[8dd#\J	.
8C#'\L	8dd#\L]	.
8c#\	8ee\	.
8e\J	[8cc#\J	.
=13	=13	=13
8BB'\L	8cc#\L]	>
8B\	8dd#\	.
8d#\J	[8b\J	.
8AA'\L	8b\L]	.
8A\	8cc#\	.
8c#\J	8a\J	.
=14	=14	=14
8GG#'\L	8a/L	.
8G#\	8b/	.
8B\J	[8g#/J	.
8FF#'\L	8g#/L]	.
8F#\	8a/	.
8A\J	8f#/J	.
=15	=15	=15
4.EE/	8g#/L	p
.	8e/	<
.	8g#/J	.
4.E\	8b\L	.
.	8ee\	.
.	8b\J	.
=16	=16	=16
4.AA/	8cc#\L)	mf
.	8aa\ (8ccc#\	.
.	8gg#\ 8bb\J	.
4.A\	8ff#\ 8aa\L	.
.	8ee\ 8gg#\	.
.	8dd#\ 8ff#\J)	.
=17	=17	=17
4.BB\ 4.E\ 4.G#\ 4.B\	(8g#\L	p
.	8b\	.
.	8ee\J	.
4.BB\ 4.F#\	8f#\L	.
.	8a\	.
.	8dd#\J)	.
=18	=18	=18
.	(dd#q/	.
4.EE/ 4.E/	4.ee\)	.
4.e\ 4.gn\	(8b\L	<
.	8ggn\	.
.	8ff#\J	.
=19	=19	=19
4.cn\ 4.e\	8aa\L	.
.	8dd#\	.
.	8ee\J	.
4.c\ 4.e\ 4.a\	8cccn\L	.
.	8dd#\	.
.	8ee\J	.
=20	=20	=20
4.BB\ 4.B\	8aa#\L	.
.	8bb\	.
.	(8ff#\J)	.
4.c#\ 4.en\	8b\L	p
.	8ggn\	.
.	8ff#\J	.
=21	=21	=21
4.cn\ 4.e\	8aa\L	.
.	8dd#\	.
.	8ee\J	.
4.c\ 4.e\ 4.a\	8cccn\L	.
.	8dd#\	.
.	8ee\J	.
=22	=22	=22
4.BB\ 4.B\	8aa#\L	.
.	8bb\	.
.	8ff#\J	.
8E'\L	[4.gg#'\)	p
(8e\	.	.
8g#\J)	.	.
=23	=23	=23
8D#'\L	8gg#\L]	.
(8d\	8ff#\	.
8f#\J)	[8dd#\J	.
8C#'\L	8dd#\L]	.
(8c#\	8ee\	.
8e\J)	[8cc#\J	.
=24	=24	=24
8BB'\L	8cc#\L]	.
(8d#\	8ff#\	.
8f#\J)	[8dd#\J	.
8AA'\L	8dd#\L]	.
(8d#\	8ff#\	.
8f#\J)	8dd#\J	.
=25	=25	=25
8GG#'\L	8dd#\L	.
(8e\	8gg#\	.
8g#\J)	[8ee\J	.
8FF#'\L	8ee\L]	.
(8f#\	8aa\	.
8a\J)	[8ff#\J	.
=26	=26	=26
(4.EE/	8ff#\L]	f
.	8bb\	.
.	8gg#\J	.
4.E\	8ee\L	.
.	8b\	.
.	8dd#\J	.
=27	=27	=27
4.AA/	8cc#\L	.
.	8aa\ 8ccc#\	.
.	8gg#\ 8bb\J	.
4.A\	8ff#\ 8aa\L	.
.	8ee\ 8gg#\	.
.	8dd#\ 8ff#\J	.
=28	=28	=28
4.B\	8g#\L	p
.	8b\	.
.	8ee\J	.
4.BB/)	8f#\L	.
.	8a\	.
.	8dd#\J	.
=29	=29	=29
.	(dd#q/	.
(8EE/L	4.ee\)	.
8GG#/	.	.
8BB/J	.	.
8E'\L)	[4.gg#\	p
(8e\	.	.
8g#\J)	.	.
=30	=30	=30
8D#'\L	8gg#\L]	.
(8d#\	8ff#\	.
8f#\J)	[8dd#\J	.
8C#'\L	8dd#\L]	.
(8c#\	8ee\	.
8e\J)	[8cc#\J	.
=31	=31	=31
8BB'\L	8cc#\L]	<
8d#\	8ff#\	.
8f#\J	[8dd#\J	.
8AA'\L	8dd#\L]	.
8d#\	8ff#\	.
8f#\J	(8dd#\J	.
=32	=32	=32
8GG#'\L	8dd#\L)	.
(8e\	8gg#\	.
8g#\J)	[8ee\J	.
8FF#'\L	8ee\L]	.
(8f#\	8aa\	.
8a\J)	[8ff#\J	.
=33	=33	=33
(4.EE/	8ff#\L]	f
.	8bb\	.
.	8gg#\J	.
4.E\	8ee\L	.
.	8b\	.
.	8dd#\J	.
=34	=34	=34
4.AA/	8cc#\L	.
.	8aa\ 8ccc#\	.
.	8gg#\ 8bb\J	.
4.A\	8ff#\ 8aa\L	.
.	8ee\ 8gg#\	.
.	8dd#\ 8ff#\J	.
=35	=35	=35
4.B\	8g#/L	p
.	8b/	.
.	8ee/J	.
4.BB/	8f#/L	.
.	8a/	.
.	8dd#/J	.
=36	=36	=36
4.EE/)	8ee\L	<
.	8bb\	.
.	8gg#\J	.
(4.E\	8ee\L	.
.	8b\	.
.	[8b#\J	.
=37	=37	=37
4.AA/	8b#\L]	.
.	8cc#\	.
.	[8dd#\J	.
4.A\	8dd#\L]	.
.	8ee\	.
.	8a\J	.
=38	=38	=38
4.B\	8g#/L	.
.	8b/	.
.	8e/J	.
4.BB/)	8f#/L	.
.	8e/	.
.	8d#/J	.
=39	=39	=39
.	(d#q/	.
4.EE/ 4.E/	4.e/)	f
4r	4r	.
8r	8r	.
=40:|!|:	=40:|!|:	=40:|!|:
*>B	*>B	*>B
*k[]	*k[]	*k[]
*^	*	*
8E/L	(4E\	2.r	.
8e/J)	.	.	.
8r	8D'\ 8d'\	.	.
4.r	8C'\ 8c'\L	.	.
.	8BB'\ 8B'\	.	.
.	8AA'\ 8A'\J	.	.
*v	*v	*	*
=41	=41	=41
8GG'/ 8G'/L	2.r	.
8FF'/ 8F'/	.	.
8EE'/ 8E'/J	.	.
8FF'/ 8F'/L	.	.
8CC'/ 8C'/	.	.
8DD'/ 8D'/J	.	.
=42	=42	=42
4.EE^/ 4.E^/	8r	.
.	(8ee\L	mf
.	8b\J	.
4.E\ 4.A\ 4.c\	8cc/L	.
.	8a/	.
.	8d#/J	.
=43	=43	=43
4.E\ 4.B\	8e'/ 8g#'/ 8b'/)	.
.	(8ee\L	.
.	8b\J	.
4.E\ 4.A\ 4.c\	8cc/L	.
.	8a/	.
.	8d#/J	.
=44	=44	=44
4.E\ 4.B\	8e'/ 8g#'/ 8b'/)	.
.	(8ee\L	.
.	8dd\J	.
4.E\ 4.Gn\ 4.e\	8cc#\L	.
.	8dd\	.
.	8ee\J	.
=45	=45	=45
4.F\ 4.A\ 4.d\	8dd\L	.
.	8aa\	.
.	8dd\J	.
4.E\ 4.G\ 4.e\	8cc#\L	.
.	8dd\	.
.	8ee\J	.
=46	=46	=46
8F\ 8A\ 8d\L	8dd\)	f
8A'\ 8a'\	8r	.
8G'\ 8g'\J	8r	.
8F'\ 8f'\L	4r	.
8E'\ 8e'\	.	.
8D'\ 8d'\J	8r	.
=47	=47	=47
8C'\ 8c'\L	2.r	.
8BB-'\ 8B-'\	.	.
8AA'\ 8A'\J	.	.
8BB-'/ 8B-'/L	.	.
8FF'/ 8F'/	.	.
8GG'/ 8G'/J	.	.
=48	=48	=48
4.AA^/ 4.A^/	8r	.
.	(8aa\L	mf
.	8ee\J	.
4.A\ 4.d\ 4.f\	8ff\L	.
.	8dd\	.
.	8g#\J	.
=49	=49	=49
4.A\ 4.e\	8a'\ 8cc#'\ 8ee'\L)	.
.	(8aa\	.
.	8ee\J	.
4.A\ 4.d\ 4.f\	8ff\L	.
.	8dd\	.
.	8g#\J	.
=50	=50	=50
4.A\ 4.e\	8a'\ 8cc#'\ 8ee'\L)	.
.	(8aa\	.
.	8gg\J	.
4.A\ 4.cn\ 4.a\	8ff#\L	.
.	8gg\	.
.	8aa\J	.
=51	=51	=51
4.B-\ 4.d\ 4.g\	8gg\L	.
.	8ddd\	.
.	8gg\J	.
4.A\ 4.c\ 4.a\	8ff#\L	.
.	8gg\	.
.	8aa\J	.
=52	=52	=52
8B-\ 8d\ 8g\L	8gg\)	f
8B-'\ 8b-'\	8r	.
8A'\ 8a'\J	8r	.
8G'\ 8g'\L	4r	.
8F'\ 8f'\	.	.
8E-'\ 8e-'\J	8r	.
=53	=53	=53
8D'\ 8d'\L	2.r	.
8C'\ 8c'\	.	.
8BB-'\ 8B-'\J	.	.
8AA-'/ 8A-'/L	.	.
8GG'/ 8G'/	.	.
8FF'/ 8F'/J	.	.
=54	=54	=54
4.EE-^/ 4.E-^/	8r	.
.	(8bb-\L	mf
.	8ee-\J	.
4.EE-/ 4.E-/	8dd-\L	.
.	8cc\	.
.	8dd-\J	.
=55	=55	=55
4.En\ 4.B-\ 4.c\	8cc\L)	.
.	(8bb-\	.
.	8aa-\J)	.
.	(bb-q/	.
4.E\ 4.B-\ 4.c\	(8aa-\L)	.
.	8gg\	.
.	8ff\J)	.
=56	=56	=56
.	(ffq/	.
4.E\ 4.B-\ 4.c\	(8een\L)	.
.	8dd-\	.
.	8cc\J)	.
.	eeq/	.
4.E\ 4.B-\ 4.c\	(8dd-\L	.
.	8cc\	.
.	8b-\J	.
=57	=57	=57
4.F\ 4.c\	8a\L)	.
.	(8ccc\	p
.	8ff\J	.
4.F\ 4.c\	8ee-\L	.
.	8dd\	.
.	8ee-\J	.
=58	=58	=58
4.F#\ 4.c\ 4.d\	8dd\L)	.
.	(8ccc\	.
.	8bb-\J)	.
.	cccq/	.
4.F#\ 4.c\ 4.d\	(8bb-\L	.
.	8aa\	.
.	8gg\J)	.
=59	=59	=59
.	aaq/	.
4.F#\ 4.c\ 4.d\	(8gg\L	.
.	8ff#\	.
.	8ee-\J)	.
.	ffnq/	.
4.F#\ 4.c\ 4.d\	(8ee-\L	.
.	8dd\	.
.	8cc\J	.
=60	=60	=60
4.G\ 4.d\	8b\L)	.
.	(8ccc\	mf
.	8gg\J	.
4.G\ 4.d\	8ff\L	.
.	8ee\	.
.	8ff\J	.
=61	=61	=61
4.G#\ 4.d\ 4.e\	8ee\L)	.
.	(8ddd\	.
.	8ccc\J)	.
.	(dddq/	.
4.G#\ 4.d\ 4.e\	(8ccc\L)	.
.	8bb\	.
.	8aa\J)	.
=62	=62	=62
.	(bbq/	.
4.G#\ 4.d\ 4.e\	(8aa\L)	.
.	8gg#\	.
.	8ff\J)	.
.	ggnq/	.
4.G#\ 4.d\ 4.e\	(8ff\L	.
.	8ee\	.
.	8dd\J	.
=63	=63	=63
*k[f#c#g#]	*k[f#c#g#]	*k[f#c#g#]
8A\L	8cc#\L	>
8B\	8dd\	.
8c#\J	8ee\J)	.
.	(eeq/	.
8D'\L	4ff#\)	p
8d\	.	.
8f#\J	([8gg#\	mf
=64	=64	=64
8C#'\L	8gg#\L]	.
8c#\	8aa\	.
8e\J	8ee\J	.
8BB'\L	8dd\L	.
8B\	8cc#\	.
8d\J	8dd\J	.
=65	=65	=65
8AA'\L	8cc#\L	.
8A\	8dd\	.
8c#\J	8ee\J)	.
.	eeq/	.
8D'\L	4ff#\	.
8d\	.	.
8f#\J	([8gg#\	p
=66	=66	=66
8C#'\L	8gg#\L]	.
8c#\	8aa\	.
8e\J	8ee\J	.
8BB'\L	8dd\L	.
8B\	8cc#\	.
8d\J	8dd\J	.
=67	=67	=67
4.AA^/	4.cc#\)	.
8A'\L	[4.ccc#\	f
(8a\	.	.
8cc#\J)	.	.
=68	=68	=68
8G#'\L	8ccc#\L]	.
(8g#\	8bb\	p
8b\J)	[8gg#\J	.
8F#'\L	8gg#\L]	.
(8f#\	8aa\	.
8a\J)	[8ff#\J	.
=69	=69	=69
8E'\L	8ff#\L]	<
(8e\	8bb\	.
8g#\J)	[8gg#\J	.
8D'/L	8gg#\L]	.
*clefG2	*	*
(8g#/	8bb\	.
8b/J)	[8gg#\J	.
*clefF4	*	*
=70	=70	=70
8C#'/L	8gg#\L]	.
*clefG2	*	*
(8a/	8ccc#\	.
8cc#/J)	[8aa\J	.
*clefF4	*	*
8BB'/L	8aa\L]	.
*clefG2	*	*
(8b/	8ddd\	.
8dd/J)	[8bb\J	.
*clefF4	*	*
=71	=71	=71
(4.AA/	8bb\L]	f
.	8ccc#\	.
.	[8gg#\J	.
4.A\	8gg#\L]	.
.	8aa\	.
.	8ee\J	.
=72	=72	=72
4.D\	8ee#\L	.
.	8ff#\	.
.	[8cc#\J	.
4.d\	8cc#\L]	.
.	8dd\	.
.	[8b\J	.
=73	=73	=73
4.e\)	8b\L]	.
.	8ee\	.
.	8a\J	.
(4.E\	8b/L	.
.	8a/	.
.	8g#/J	.
=74	=74	=74
.	g#q/	.
8AA/L	4.a/	>
8C#/	.	.
8E/J	.	.
8A'\L)	4.ccc#\	f
8a\	.	.
8cc#\J	.	.
=75	=75	=75
8G#'\L	8ccc#\L	.
(8g#\	8bb\	p
8b\J)	[8gg#\J	.
8F#'\L	8gg#\L]	.
(8f#\	8aa\	.
8a\J)	[8ff#\J	.
=76	=76	=76
8E'\L	8ff#\L]	<
(8e'\	8bb\	.
8g#\J)	[8gg#\J	.
8D'/L	8gg#\L]	.
*clefG2	*	*
(8g#/	8bb\	.
8b/J)	[8gg#\J	.
*clefF4	*	*
=77	=77	=77
8C#'/L	8gg#\L]	.
*clefG2	*	*
(8a/	8ccc#\	.
8cc#/J)	[8aa\J	.
*clefF4	*	*
8BB'/L	8aa\L]	.
*clefG2	*	*
(8b/	8ddd\	.
8dd/J)	[8bb\J	.
*clefF4	*	*
=78	=78	=78
(4.AA/	8bb\L]	f
.	8ccc#\	.
.	[8gg#\J	.
4.A\	8gg#\L]	.
.	8aa\	.
.	8ee\J	.
=79	=79	=79
4.D\	8ee#\L	.
.	8ff#\	.
.	8cc#\J	.
4.d\	8cc#\L	.
.	8dd\	.
.	[8b\J	.
=80	=80	=80
4.E\	8b\L]	.
.	8ee\	.
.	8a\J	.
4.EE/	8b/L	.
.	8a/	.
.	8g#/J	.
=81	=81	=81
4.AA/)	8r	.
.	8aa\L	.
.	8ee\J	.
(4.C#/	8cc#/L	.
.	8a/	.
.	8e/J	.
=82	=82	=82
4.DD/ 4.D/	8B/L	.
.	8d/ 8f#/	.
.	8c#/ 8e/J	.
4.EE/ 4.E/	8B/ 8d/L	.
.	8A/ 8c#/	.
.	8G#/ 8B/J	.
=83	=83	=83
4.AA/)	8A/	.
.	8ee\L	.
.	8cc#\J	.
(4.CC#/ 4.C#/	8a/L	.
.	8e/	.
.	8c#/J	.
=84	=84	=84
4.DD/ 4.D/	8B/L	.
.	8d/ 8f#/	.
.	8c#/ 8e/J	.
4.EE/ 4.E/	8B/ 8d/L	.
.	8A/ 8c#/	.
.	8G#/ 8B/J	.
=85	=85	=85
4.AA/)	4.A/	.
4r	4r	.
8r	8r	.
==:|!	==:|!	==:|!
*-	*-	*-
!!!ENC: Craig Stuart Sapp
!!!END: 2004/11/08/
